X: 1
T: Pauline Conneely's
M: 4/4
L: 1/8
R: reel
K: Dmaj
A,2EA, G,B,DG|FDD2 ADFD|EDCA, G,B,DG|FDAD BDAE| 
A,2EA, G,B,DG|FDD2 ADFA|BcAG (3FED CE|DFAD GEFD:|
cAA2 EDCA|cAA2 Bcdc|dGGF GEDe|dGG2 BcdB| 
cAA2 EDCD|EDCB, A,CEA|BDAD (3GFG ED|1 CEAB cABd:|2 CEAB cAA2||
